X:1
T:[ID 2-80]
T:[ID 2-80]
T:Bezeichnung standardisiert: Menuet [mit Trio] Menuet Con Trio 3.
T:Urheber unbekannt Datum in der hier transkribierten schriftlichen Quelle: 1767
C:Urheber unbekannt
C:Datum in der hier transkribierten schriftlichen Quelle: 1767
L:1/8
M:3/4
K:A
V:1 treble 
V:1
 A2 AFAB | c4 B2 | cdcBAc |{B} A4 G2 | A2 AFAB | c4 d2 | cd e2 ed |{d} c6 :: G2 G2 F2 | F2 | %10
 G2 E2 B2 | cB B2 A2 |{A} G6 | cB A2 B2 | c2 (3Bcd c2 | d2 efed |{d} c6 :| %17
[M:3/4]"^Trio" (3!fermata!ABc BAed | c2 c2 B2 | A2 e2 fe |{d} c4 B2 | (3dcB BBBB | (3cBA AAAA | %23
 AccBBA |{A} G6 :: f2 e2 d2 | c2 cdec | f2 e2 d2 |{d} c6 | B2 B2 AG | Aceg a2 | d2 e2 ed |{d} c6 :| %33

